X: 109
T: Bonny Kitty
%%VWML:Thompsons1762-2277a-p55-0 
F:http://www.vwml.org/record/Thompsons1762/2277a/p55
Z: 2014 John Chambers <jc:trillian.mit.edu>
B: Thompson "Twenty four Country Dances for the Year 1762" p.55 #1
F: http://www.vwml.org/browse/browse-collections-dance-tune-books/browse-thompsons1762# 2014 -8-11
M: 2/4
L: 1/16
K: G
[D2G,2] |\
[G2G,2][G2-G,2] GABc | [d2D2][d2-D2] dgfe |dedc BcBA | G2G2G2 :|
|: g2- |gfed cBAG | [c2E2][c2E2][c2E2]a2- | agfe dcBA | [B2G2][B2G2][B2G2]g2- | gfed cBAG | [c2E2][c2E2][e2c2]g2 | e2dc BcAB | G2G2G2 :|
%------------------------- 
%%begintext align
%% Foot it 4 change sides and clap Hands 3 times .|. the 
%% same back again .|: cross over two Cu: lead to the
%% top cast off and clap Hands 3 times :|. Hands round 
%% four at bottom right & left at top & clap hands 3 times :|: 
%%endtext
%-------------------------
T: the Coronation
%R: jig
Z: 2014 John Chambers <jc:trillian.mit.edu>
B: Thompson "Twenty four Country Dances for the Year 1762" p.55 #2
F: http://www.vwml.org/browse/browse-collections-dance-tune-books/browse-thompsons1762# 2014 -8-11
M: 6/8
L: 1/8
K: G
|:g2d Tc2B | A2G AFD | g2d c2B | AGF G3 |g2d c2B | A2G AFD | B2^c d2g | fge Td3 :|
|:d2g f2e | d^cd ecA | d2g f2e | de^c def |g2d Tc2B | A2G AFD | g2d Tc2B | AGF G3 :|
%-------------------------
%%begintext align
%% Cast down two Cu: and turn .|. cast up to the top
%% and turn .|: Gallop down the middle up again and
%% turn :|. Hands round 4 at top :|:
%%endtext
%-------------------------
